src/assets/icons/letters,fancy,serif-o.svg

<svg width="48" height="48" viewBox="0 0 48 48" fill="none" xmlns="http://www.w3.org/2000/svg">
<path d="M24.0122 7.36C26.2922 7.36 28.4202 7.75267 30.3962 8.538C32.3722 9.32333 34.0822 10.4 35.5262 11.768C36.9955 13.136 38.1482 14.7447 38.9842 16.594C39.8202 18.4433 40.2382 20.4447 40.2382 22.598C40.2382 24.65 39.8075 26.5753 38.9462 28.374C38.1102 30.1727 36.9575 31.7433 35.4882 33.086C34.0442 34.4033 32.3342 35.4547 30.3582 36.24C28.3822 37 26.2668 37.38 24.0122 37.38C21.7575 37.38 19.6422 37 17.6662 36.24C15.6902 35.4547 13.9675 34.4033 12.4982 33.086C11.0288 31.7433 9.87617 30.1727 9.04017 28.374C8.20417 26.5753 7.78617 24.65 7.78617 22.598C7.78617 20.4447 8.20417 18.4433 9.04017 16.594C9.87617 14.7447 11.0162 13.136 12.4602 11.768C13.9295 10.4 15.6522 9.32333 17.6282 8.538C19.6042 7.75267 21.7322 7.36 24.0122 7.36ZM24.0122 34.91C25.4815 34.91 26.8115 34.6313 28.0022 34.074C29.1928 33.4913 30.2062 32.6807 31.0422 31.642C31.8782 30.578 32.5115 29.2987 32.9422 27.804C33.3982 26.284 33.6262 24.5867 33.6262 22.712C33.6262 20.736 33.3982 18.9627 32.9422 17.392C32.5115 15.796 31.8782 14.4407 31.0422 13.326C30.2062 12.186 29.1928 11.3247 28.0022 10.742C26.8115 10.134 25.4815 9.83 24.0122 9.83C22.5175 9.83 21.1748 10.134 19.9842 10.742C18.8188 11.3247 17.8182 12.186 16.9822 13.326C16.1462 14.4407 15.5002 15.796 15.0442 17.392C14.6135 18.9627 14.3982 20.736 14.3982 22.712C14.3982 24.5867 14.6135 26.284 15.0442 27.804C15.5002 29.2987 16.1462 30.578 16.9822 31.642C17.8182 32.6807 18.8188 33.4913 19.9842 34.074C21.1748 34.6313 22.5175 34.91 24.0122 34.91Z" fill="black"/>
</svg>

<svg xmlns="http://www.w3.org/2000/svg" width="48" height="48" fill="none" viewBox="0 0 48 48">
  <path fill="#000" d="M24.012 7.36c2.28 0 4.408.393 6.384 1.178 1.976.785 3.686 1.862 5.13 3.23a14.926 14.926 0 013.458 4.826c.836 1.85 1.254 3.85 1.254 6.004 0 2.052-.43 3.977-1.292 5.776a14.738 14.738 0 01-3.458 4.712c-1.444 1.317-3.154 2.369-5.13 3.154-1.976.76-4.091 1.14-6.346 1.14s-4.37-.38-6.346-1.14c-1.976-.785-3.699-1.837-5.168-3.154a14.737 14.737 0 01-3.458-4.712c-.836-1.799-1.254-3.724-1.254-5.776 0-2.153.418-4.155 1.254-6.004a15.206 15.206 0 013.42-4.826c1.47-1.368 3.192-2.445 5.168-3.23 1.976-.785 4.104-1.178 6.384-1.178zm0 27.55c1.47 0 2.8-.279 3.99-.836a8.855 8.855 0 003.04-2.432c.836-1.064 1.47-2.343 1.9-3.838.456-1.52.684-3.217.684-5.092 0-1.976-.228-3.75-.684-5.32-.43-1.596-1.064-2.951-1.9-4.066-.836-1.14-1.85-2.001-3.04-2.584-1.19-.608-2.52-.912-3.99-.912-1.495 0-2.837.304-4.028.912-1.165.583-2.166 1.444-3.002 2.584-.836 1.115-1.482 2.47-1.938 4.066-.43 1.57-.646 3.344-.646 5.32 0 1.875.216 3.572.646 5.092.456 1.495 1.102 2.774 1.938 3.838a8.963 8.963 0 003.002 2.432c1.19.557 2.533.836 4.028.836z"/>
</svg>
